!!!OTL: Lingdangling, Suodangsuo
!!!ARE: Asia, China,ÿJiangxi, Gaoan
!! IV, 259
!!!SCT: C1690
!!!YEM: Copyright 1995, estate of Helmut Schaffrath.
**kern
*ICvox
*Ivox
!! Mixed meters:  2/4; 3/4
*M2/4
*k[f#]
*G:
{8ee
8dd
8ee
8dd
=1
8ee
8gg
16ee
16gg
16ee
16dd
=2
8b
8gg
8ee
8b
=3
4dd
8b
16a
16b
=4
8dd
4b
8r}
=5
{8dd
4dd
8gg
=6
8.ee
16dd
8b
8a
=7
8g
8e
4r}
=8
{8b
16a
16b
8dd
8ee
=9
8g
8e
8r
16ee
16dd
=10
*M3/4
8b
16dd
16ee
8g
4.a}
=11
*M2/4
{8b
16a
16b
4e
=12
8g
8g
4a}
=13
{16dd
16dd
16b
16dd
8e
8e
=14
8g
16e
16g
4a}
=15
{8b
16a
16b
8dd
8ee
=16
8g
8e
8r
16ee
16dd
=17
8b
16dd
16ee
8g
4.a}
==
!!!AGN: Xiaodiao, Bu wan
!!!AMT: irregular
!!!AIN: vox
!!!EED: Helmut Schaffrath
!!!EEV: 1.0
*-
